app/images/icons/3dots.svg

<svg fill="none" height="4" viewBox="0 0 20 4" width="20" xmlns="http://www.w3.org/2000/svg"><g clip-rule="evenodd" fill="#6a737d" fill-rule="evenodd"><path d="m2 4c1.10457 0 2-.89543 2-2s-.89543-2-2-2-2 .89543-2 2 .89543 2 2 2z"/><path d="m10 4c1.1046 0 2-.89543 2-2s-.8954-2-2-2c-1.10457 0-2 .89543-2 2s.89543 2 2 2z"/><path d="m18 4c1.1046 0 2-.89543 2-2s-.8954-2-2-2-2 .89543-2 2 .8954 2 2 2z"/></g></svg>

<svg width="20" height="4" viewBox="0 0 20 4" fill="none" xmlns="http://www.w3.org/2000/svg">
  <path fill-rule="evenodd" clip-rule="evenodd" d="M2 4C3.10457 4 4 3.10457 4 2C4 0.89543 3.10457 0 2 0C0.89543 0 0 0.89543 0 2C0 3.10457 0.89543 4 2 4Z" fill="#6A737D"/>
  <path fill-rule="evenodd" clip-rule="evenodd" d="M10 4C11.1046 4 12 3.10457 12 2C12 0.89543 11.1046 0 10 0C8.89543 0 8 0.89543 8 2C8 3.10457 8.89543 4 10 4Z" fill="#6A737D"/>
  <path fill-rule="evenodd" clip-rule="evenodd" d="M18 4C19.1046 4 20 3.10457 20 2C20 0.89543 19.1046 0 18 0C16.8954 0 16 0.89543 16 2C16 3.10457 16.8954 4 18 4Z" fill="#6A737D"/>
</svg>
